X:1
T:Almsgiving (Dykes), 88.84
T:Almsgiving (Dykes), 88.84
T:John Bacchus Dykes, 1865
T:Public Domain Courtesy of the Cyber Hymnal™
C:John Bacchus Dykes, 1865
Z:Public Domain
Z:Courtesy of the Cyber Hymnal™
%%score ( 1 2 ) ( 3 4 )
L:1/8
Q:1/4=113
M:3/4
K:G
V:1 treble 
V:2 treble 
V:3 bass 
V:4 bass 
V:1
 [DB]2 [DB]2 A2 | G4 D2 | G4 [CA]2 | [B,B]6 | D2 [DG]2 [GB]2 | d4 [Fc]2 | (B2 A2) [^CG]2 | [FA]6 | %8
 [A,F]2 [B,G]2 [CA]2 | [B,G]4 [CG]2 | ([DB]2 [Gc]2) [=Fd]2 | [Ee]6 | G2 [GB]3 [FA] x | G6 |] %14
V:2
 x4 (DC) | B,3 C x2 | (D2 C2) x2 | x6 | D2 x4 | (G2 FE) x2 | D4 x2 | x6 | x6 | x6 | x6 | x6 | %12
 (B,D) x5 | G6 |] %14
V:3
 [G,,G,]2 [B,,G,]2 [D,F,]2 | (G,3 A,) ([G,B,][F,A,]) | [E,G,]4 [D,F,]2 | [G,,G,]6 | %4
 [G,B,]2 [G,B,]2 [E,B,]2 | (B,2 A,G,) [D,A,]2 | G,2 [F,A,]2 [E,B,]2 | [D,F,]6 | %8
 [D,C]2 [D,B,]2 [D,F,]2 | G,2 [B,D]2 [A,C]2 | B,2 [E,G,]2 (A,B,) | (C2 G,2 A,2) | (B,G,) D3 z C | %13
 [G,B,]6 |] %14
V:4
 x6 | G,4 x2 | x6 | x6 | x6 | D,4 x2 | G,2 x4 | x6 | x6 | G,2 x4 | (G,=F, x D,2) x | C,6 | %12
 D,2 D,2 D,2 x | x6 |] %14

